public/flags/BB.svg

<svg fill="none" height="53" viewBox="0 0 61 53" width="61" xmlns="http://www.w3.org/2000/svg" xmlns:xlink="http://www.w3.org/1999/xlink"><linearGradient id="a" gradientUnits="userSpaceOnUse" x1="1" x2="1" y1="3" y2="45.5"><stop offset="0" stop-color="#1132c7"/><stop offset="1" stop-color="#0522a5"/></linearGradient><mask id="b" height="43" maskUnits="userSpaceOnUse" width="59" x="1" y="3"><rect fill="#fff" height="42.5" rx="4.24286" width="59" x="1" y="3"/></mask><rect fill="#fff" height="42.5" rx="4.24286" width="59" x="1" y="3"/><g mask="url(#b)"><path d="m1 3h59v42.5h-59z" fill="url(#a)"/><path d="m29.0952 3h30.9048v42.5h-30.9048z" fill="#08379d"/><g clip-rule="evenodd" fill-rule="evenodd"><path d="m1 45.5h19.6667v-42.5h-19.6667z" fill="#08379d"/><path d="m20.6665 45.5h19.6667v-42.5h-19.6667z" fill="#ffcc50"/><path d="m29.9581 16.637c.2835-.4203.9041-.4146 1.1798.0109l1.4643 2.2605c.3047.4705-.033 1.0916-.5935 1.0916h-.0258c-.4182 0-.745.3608-.7037.7769l.5621 5.6691c.0359.3617.3402.6373.7037.6373h.4718c.1873 0 .3669-.0742.4995-.2065l.99-.9877c.133-.1327.2077-.3128.2077-.5006v-2.264c0-.1865-.0737-.3655-.205-.4979l-.4002-.4036c-.3686-.3718-.2194-1.0013.2769-1.1682l2.0018-.6729c.5104-.1716 1.0176.2674.921.7971l-1.036 5.6813c-.0265.1451-.0976.2782-.2035.3809l-2.554 2.476c-.132.128-.3085.1995-.4922.1995h-.4112c-.3905 0-.7071.3166-.7071.7071v1.4191c0 .3905-.3166.7071-.7071.7071h-1.3953c-.3905 0-.7071-.3166-.7071-.7071v-1.4191c0-.3905-.3166-.7071-.7072-.7071h-.4029c-.1886 0-.3694-.0753-.5022-.2093l-2.452-2.4727c-.0978-.0987-.1644-.2241-.1915-.3604l-1.126-5.6778c-.1057-.5328.404-.9809.919-.8078l1.9816.6661c.4963.1669.6455.7964.2768 1.1682l-.4001.4036c-.1314.1324-.205.3114-.205.4979v2.264c0 .1878.0747.3679.2077.5006l.99.9877c.1326.1323.3122.2065.4994.2065h.4719c.3635 0 .6678-.2756.7037-.6373l.5622-5.6703c.0412-.4154-.2851-.7757-.7025-.7757-.5656 0-.9016-.6318-.5854-1.1007z" fill="#262626"/></g></g></svg>

<svg width="61" height="53" viewBox="0 0 61 53" fill="none" xmlns="http://www.w3.org/2000/svg">
<rect x="1" y="3" width="59" height="42.5" rx="4.24286" fill="white"/>
<mask id="mask0" mask-type="alpha" maskUnits="userSpaceOnUse" x="1" y="3" width="59" height="43">
<rect x="1" y="3" width="59" height="42.5" rx="4.24286" fill="white"/>
</mask>
<g mask="url(#mask0)">
<rect x="1" y="3" width="59" height="42.5" fill="url(#paint0_linear)"/>
<rect x="29.0952" y="3" width="30.9048" height="42.5" fill="#08379D"/>
<path fill-rule="evenodd" clip-rule="evenodd" d="M1 45.5H20.6667V3H1V45.5Z" fill="#08379D"/>
<path fill-rule="evenodd" clip-rule="evenodd" d="M20.6665 45.5H40.3332V3H20.6665V45.5Z" fill="#FFCC50"/>
<path fill-rule="evenodd" clip-rule="evenodd" d="M29.9581 16.637C30.2416 16.2167 30.8622 16.2224 31.1379 16.6479L32.6022 18.9084C32.9069 19.3789 32.5692 20 32.0087 20H31.9829C31.5647 20 31.2379 20.3608 31.2792 20.7769L31.8413 26.446C31.8772 26.8077 32.1815 27.0833 32.545 27.0833H33.0168C33.2041 27.0833 33.3837 27.0091 33.5163 26.8768L34.5063 25.8891C34.6393 25.7564 34.714 25.5763 34.714 25.3885V23.1245C34.714 22.938 34.6403 22.759 34.509 22.6266L34.1088 22.223C33.7402 21.8512 33.8894 21.2217 34.3857 21.0548L36.3875 20.3819C36.8979 20.2103 37.4051 20.6493 37.3085 21.179L36.2725 26.8603C36.246 27.0054 36.1749 27.1385 36.069 27.2412L33.515 29.7172C33.383 29.8452 33.2065 29.9167 33.0228 29.9167H32.6116C32.2211 29.9167 31.9045 30.2333 31.9045 30.6238V32.0429C31.9045 32.4334 31.5879 32.75 31.1974 32.75H29.8021C29.4116 32.75 29.095 32.4334 29.095 32.0429V30.6238C29.095 30.2333 28.7784 29.9167 28.3878 29.9167H27.9849C27.7963 29.9167 27.6155 29.8414 27.4827 29.7074L25.0307 27.2347C24.9329 27.136 24.8663 27.0106 24.8392 26.8743L23.7132 21.1965C23.6075 20.6637 24.1172 20.2156 24.6322 20.3887L26.6138 21.0548C27.1101 21.2217 27.2593 21.8512 26.8906 22.223L26.4905 22.6266C26.3591 22.759 26.2855 22.938 26.2855 23.1245V25.3885C26.2855 25.5763 26.3602 25.7564 26.4932 25.8891L27.4832 26.8768C27.6158 27.0091 27.7954 27.0833 27.9826 27.0833H28.4545C28.818 27.0833 29.1223 26.8077 29.1582 26.446L29.7204 20.7757C29.7616 20.3603 29.4353 20 29.0179 20V20C28.4523 20 28.1163 19.3682 28.4325 18.8993L29.9581 16.637Z" fill="#262626"/>
</g>
<defs>
<linearGradient id="paint0_linear" x1="1" y1="3" x2="1" y2="45.5" gradientUnits="userSpaceOnUse">
<stop stop-color="#1132C7"/>
<stop offset="1" stop-color="#0522A5"/>
</linearGradient>
</defs>
</svg>
